X: 4
T: Ciribiribin   [G]
C: music: Alberto Pestalozza (1898)
M: 3/4
L: 1/8
K: G
% - - - - - - - - - -
"A"[| d2 B2 ||\
"G"A4 G2 | F4 G2 | EF D4- | D2 G2 A2 |\
"G"B4 d2 | e4 g2 | "D7"f6 | z2 f2 a2 ||\
"D7"e4 g2 | f4 e2 |
fe A4 | z2 A2 B2 |\
"D7"c4 d2 | e4 f2 | "G"d6 | z2 d2 B2 ||\
"G"A4 G2 | F4 G2 | EF D4- | D2 d2 e2 |\
"E7"=f4 e2 |
=f4 e2 | "Am"e6 | z2 A2 B2 ||\
"D7"c4 B2 | A4 e2 | "G"dB G4 | "(Cm)"z2 G2 A2 |\
"G"B2 d2 B2 | "D7"A4 d2 | "G"G4 z2 |]
"B"[| B2 B3 B ||\
"Em"e6 | B2 B3 B | "B7"f6 | B2 B3 B |\
"B7"B6 | F2 G3 A | "Em"B6- | B2 z2 B2 ||
"B"B6- | B2 z2 d2 | "D7"d6 | z2 d_dcB |\
d2 d_dcB | "G"d2 d_dcB | "D7"d6 | z2 |]
"C"|: "D7"d_dcB ||\
"G"d4 B2 | A4 G2 | D2 z2 G2 | A4 G2 |\
"G"D4 B2 | A4 G2 | "Am"c6 | z2 e_edc ||\
"D7"f4 e2 | c4 B2 |
A2 z2 A2 | B4 A2 |\
"D7"e4 g2 | f4 e2 | "G"e6 | d2 "D7"d_dcB ||\
"G"d4 B2 | A4 G2 | D2 z2 G2 | A4 G2 |\
"G"D4 B2 |
"(G+)"A4 G2 | "C"e6 | z2 fe^de ||\
"C"g6 | z2 fe^de | "G"g6 "I"| z2 BA^GA |\
"Am"c4 F2 | "D7"B4 A2 | "G"G6 | z2 :|
% - - - - - - - - - -

%%sep 1 1 400


